modules/material-icons/icons/group.svg

<svg xmlns="http://www.w3.org/2000/svg" width="24" height="24"><path d="M8 8v4h5V8H8M1 1h4v1h14V1h4v4h-1v14h1v4h-4v-1H5v1H1v-4h1V5H1V1m4 18v1h14v-1h1V5h-1V4H5v1H4v14h1M6 6h9v4h3v8H8v-4H6V6m9 8h-5v2h6v-4h-1v2z"/></svg>

<?xml version="1.0" encoding="UTF-8"?><!DOCTYPE svg PUBLIC "-//W3C//DTD SVG 1.1//EN" "http://www.w3.org/Graphics/SVG/1.1/DTD/svg11.dtd"><svg xmlns="http://www.w3.org/2000/svg" xmlns:xlink="http://www.w3.org/1999/xlink" version="1.1" width="24" height="24" viewBox="0 0 24 24"><path d="M8,8V12H13V8H8M1,1H5V2H19V1H23V5H22V19H23V23H19V22H5V23H1V19H2V5H1V1M5,19V20H19V19H20V5H19V4H5V5H4V19H5M6,6H15V10H18V18H8V14H6V6M15,14H10V16H16V12H15V14Z" /></svg>
